X:1
T:Sonny Brogan's #1
T:Reverend Brother's Jig, The
T:Port an Bhrathair
T:Monk's Jig, The
T:Sonny Brogan's Fancy
R:jig
H:See also hn #123
D:Oisin: Over the Moor to Maggie
D:Kevin Burke
Z:id:hn-jig-44
Z:Lesl
S:Lesl Harker <lmh@RCONS.COM> irtrad-l 2000-9-28
M:6/8
L: 1/8
K:Ador
d | cAB c2d | ede g3 | ABA cde | dcA AGE |
cAB c2d | ede g3 | aba ged | cAG A2d |
|cAB c2d | edE ~G3 | cAB cde | dcA AGE |
cAB c2d | ede g2e | ~a3 ged | cAG A2g ||
|eaa aba | gef ged | eaa aba | gef g3 |
eaa eaa | gef g2e | aba ged | cAA A2g |
|eaa aba | gef ged | eaa aba | gef g3 |
eaa eaa | gef ~g3 | aba ged | cAA A2d |]
